X:5385
T:Flowers of Edinburgh
M:4/4
L:1/8
Q:220
K:G
GE|D2 DE G2 GA|BGBd cBAG|FGEF DEFG|AFcF E2 GE|!
D2 DE G2 GA|BGBd efge|dcBA GFGA|B2 G2 G2:|!
ef|g2 g2 gbag|f2 f2 fagf|edef gfed|Beed e3 z|!
dBGB d3 z|edef g2 fe|dcBA GFGA|B2 G2 G2:|!
